Sources/FrostedUI/Resources/Icons.xcassets/globeInSquare24.imageset/globe-in-square-24.svg

<svg width="24" height="24" viewBox="0 0 24 24" fill="none" xmlns="http://www.w3.org/2000/svg" data-fui-icon="true">
  <path
    d="M20 1C21.6569 1 23 2.34315 23 4V19.5C23 21.1569 21.6569 22.5 20 22.5H4C2.34315 22.5 1 21.1569 1 19.5V4C1 2.34315 2.34315 1 4 1H20ZM4 2.5C3.17157 2.5 2.5 3.17157 2.5 4V19.5C2.5 20.3284 3.17157 21 4 21H20C20.8284 21 21.5 20.3284 21.5 19.5V4C21.5 3.17157 20.8284 2.5 20 2.5H4ZM12 5C15.7279 5 18.75 8.02208 18.75 11.75C18.75 15.4779 15.7279 18.5 12 18.5C8.27208 18.5 5.25 15.4779 5.25 11.75C5.25 8.02208 8.27208 5 12 5ZM10.5166 12.5C10.6252 14.9056 11.248 16.75 12 16.75C12.752 16.75 13.3748 14.9056 13.4834 12.5H10.5166ZM6.80273 12.5C7.05832 14.2868 8.21452 15.7829 9.7959 16.5156C9.68009 16.2565 9.58362 15.9857 9.50293 15.7168C9.23412 14.8208 9.0653 13.7027 9.01562 12.5H6.80273ZM14.9844 12.5C14.9347 13.7027 14.7659 14.8208 14.4971 15.7168C14.4164 15.9857 14.3199 16.2565 14.2041 16.5156C15.7855 15.7829 16.9417 14.2868 17.1973 12.5H14.9844ZM9.7959 6.98438C8.21452 7.71707 7.05832 9.21318 6.80273 11H9.01562C9.0653 9.79727 9.23412 8.67924 9.50293 7.7832C9.58362 7.51429 9.68009 7.24347 9.7959 6.98438ZM12 6.75C11.248 6.75 10.6252 8.59437 10.5166 11H13.4834C13.3748 8.59437 12.752 6.75 12 6.75ZM14.2041 6.98438C14.3199 7.24347 14.4164 7.51429 14.4971 7.7832C14.7659 8.67924 14.9347 9.79727 14.9844 11H17.1973C16.9417 9.21318 15.7855 7.71707 14.2041 6.98438Z"
    fill="currentColor"
  />
</svg>

<svg xmlns="http://www.w3.org/2000/svg" width="24" height="24" fill="none" data-fui-icon="true" viewBox="0 0 24 24"><path fill="currentColor" d="M20 1a3 3 0 0 1 3 3v15.5a3 3 0 0 1-3 3H4a3 3 0 0 1-3-3V4a3 3 0 0 1 3-3zM4 2.5A1.5 1.5 0 0 0 2.5 4v15.5A1.5 1.5 0 0 0 4 21h16a1.5 1.5 0 0 0 1.5-1.5V4A1.5 1.5 0 0 0 20 2.5zM12 5a6.75 6.75 0 1 1 0 13.5A6.75 6.75 0 0 1 12 5m-1.483 7.5c.108 2.406.731 4.25 1.483 4.25s1.375-1.844 1.483-4.25zm-3.714 0a5.26 5.26 0 0 0 2.993 4.016 7 7 0 0 1-.293-.8c-.269-.895-.438-2.013-.487-3.216zm8.181 0c-.05 1.203-.218 2.32-.487 3.217a7 7 0 0 1-.293.799 5.26 5.26 0 0 0 2.993-4.016zM9.796 6.984A5.26 5.26 0 0 0 6.803 11h2.213c.05-1.203.218-2.32.487-3.217.08-.269.177-.54.293-.799M12 6.75c-.752 0-1.375 1.844-1.483 4.25h2.966c-.108-2.406-.731-4.25-1.483-4.25m2.204.234c.116.26.212.53.293.8.269.895.438 2.013.487 3.216h2.213a5.26 5.26 0 0 0-2.993-4.016"/></svg>
